X:1
T:Title
%%score { ( 1 3 ) | ( 2 4 ) }
L:1/8
Q:1/4=100
M:4/4
K:Bb
V:1 treble nm="Grand Piano"
V:3 treble 
V:2 bass 
V:4 bass 
V:1
 [DF]2 F2 G2 [EG]2 | G2 A2 G2 F2 | [DF]2 [DB]2 [Fd]2 [DB]2 | z4 c4 | F2 F2 G2 [FB]2 | %5
w: R.~Menthal * * *|||||
 [Ee]2 [Fd]2 z4 | c2 e2 d2 [Gc]2 | [EG]2 [EA]2 [DB]4 | [DB]3 [DB] [FA]2 [EG]2 | [DF]3 [D^F] G2 B2 | %10
w: |||||
 A4 c4 |[M:8/4] [DB]8 z8 |[M:4/4] [EB]8 | [DB]8 |] %14
w: ||||
V:2
 [B,,B,]2 [D,B,]2 [E,B,E]2 [C,C]2 | [F,CE]2 [F,CE]2 [F,B,E]2 [F,A,E]2 | %2
 [B,,B,]2 [B,,B,]2 [B,,F,]2 [B,,B,]2 | z4 F2 z2 | [B,D]2 [D,B,]2 [E,B,E]2 [D,B,]2 | %5
 .[C,G,]2 .[D,B,]2[K:treble] [F,B,F]2 [F,A,F]2 | [A,CF]2 [F,A,F]2 [B,F]2[K:bass] [E,G,]2 | %7
 [C,C]2 [F,C]2 [B,,B,]4 | [B,,B,]3 [B,,B,] [B,,B,]2 [B,,B,]2 | [B,,B,]3 [B,,B,] [E,B,E]2 [E,G,E]2 | %10
 [F,E]4 [F,A,E]4 |[M:8/4] [B,,B,]8 z8 |[M:4/4] [E,G,]8 | [B,,F,]8 |] %14
V:3
 x8 | x8 | x8 | [=EG]2 [EB]2 z2 _E2 | x8 | z A, z E, d2 c2 | x8 | x8 | x8 | x8 | x8 |[M:8/4] x16 | %12
[M:4/4] x8 | x8 |] %14
V:4
 x8 | x8 | x8 | [C,B,]2 [C,G,]2 [F,A,]4 | x8 | x4[K:treble] x4 | x6[K:bass] x2 | x8 | x8 | x8 | %10
 x8 |[M:8/4] x16 |[M:4/4] x8 | x8 |] %14

